F-service/img/tick.svg

<svg width="20" height="20" viewBox="0 0 20 20" fill="none" xmlns="http://www.w3.org/2000/svg">
<g clip-path="url(#clip0_2_3371)">
<path d="M19.6434 2.9485C19.1668 2.47178 18.3953 2.47174 17.9186 2.94846L6.40196 14.4651L2.0814 10.1446C1.6048 9.66785 0.833273 9.66781 0.356632 10.1445C-0.118877 10.6201 -0.118877 11.3938 0.356632 11.8693L5.53961 17.0523C6.01613 17.5288 6.78778 17.5288 7.26434 17.0523L19.6434 4.67319C20.1189 4.19768 20.1189 3.42393 19.6434 2.9485Z" fill="#F3A845"/>
<path d="M19.6429 2.9485C19.1663 2.47178 18.3948 2.47174 17.9182 2.94846L9.51172 11.3549V14.8044L19.6429 4.67319C20.1184 4.19768 20.1184 3.42393 19.6429 2.9485Z" fill="#F3A845"/>
</g>
<defs>
<clipPath id="clip0_2_3371">
<rect width="20" height="20" fill="white"/>
</clipPath>
</defs>
</svg>

<svg width="20" height="20" fill="none" xmlns="http://www.w3.org/2000/svg"><g clip-path="url(#clip0_2_3371)" fill="#F3A845"><path d="M19.643 2.949a1.219 1.219 0 00-1.724 0L6.402 14.464l-4.32-4.32a1.219 1.219 0 10-1.725 1.724l5.183 5.183a1.22 1.22 0 001.724 0l12.38-12.379a1.22 1.22 0 000-1.724z"/><path d="M19.643 2.949a1.219 1.219 0 00-1.725 0l-8.406 8.406v3.45l10.13-10.132a1.22 1.22 0 000-1.724z"/></g><defs><clipPath id="clip0_2_3371"><path fill="#fff" d="M0 0h20v20H0z"/></clipPath></defs></svg>
